app/dist/common/images/gemdale.svg

<svg height="18" viewBox="0 0 18 18" width="18" xmlns="http://www.w3.org/2000/svg"><path d="m0 0h18v18h-18z" fill="#f0f3fa"/><g fill="#ed4f3a"><path d="m12.5 11h1.5v1.5h-1.5z"/><path d="m12 5h-8v8h8zm-1.5 1.5h-3.5v.5h3.5zm-4-.5v1.5h4.5v-1.5zm-.95 2h.45v2.43h-.45zm-.55 3v-3.5h1.5v3.5zm2.5.5h-.53v.5h.53zm-1-.5v1.5h1.5v-1.5zm3 0h1.5v1.5h-1.5z" fill-rule="evenodd"/></g></svg>

<!-- by TradingView --><svg width="18" height="18" viewBox="0 0 18 18" xmlns="http://www.w3.org/2000/svg"><path fill="#F0F3FA" d="M0 0h18v18H0z"/><path d="M12.5 11H14v1.5h-1.5V11Z" fill="#ED4F3A"/><path fill-rule="evenodd" d="M12 5H4v8h8V5Zm-1.5 1.5H7V7h3.5v-.5Zm-4-.5v1.5H11V6H6.5Zm-.95 2H6v2.43h-.45V8ZM5 11V7.5h1.5V11H5Zm2.5.5h-.53v.5h.53v-.5Zm-1-.5v1.5H8V11H6.5Zm3 0H11v1.5H9.5V11Z" fill="#ED4F3A"/></svg>
